core/img/actions/mail.svg

<svg width="24px" height="24px" viewBox="0 0 24 24" xmlns="http://www.w3.org/2000/svg"><path d="m20 8-8 5-8-5v-2l8 5 8-5m0-2h-16c-1.11 0-2 0.89-2 2v12a2 2 0 0 0 2 2h16a2 2 0 0 0 2-2v-12c0-1.11-0.9-2-2-2z"/></svg>

<svg xmlns="http://www.w3.org/2000/svg" viewBox="0 0 24 24" width="24px" height="24px"><path d="M20,8L12,13L4,8V6L12,11L20,6M20,4H4C2.89,4 2,4.89 2,6V18A2,2 0 0,0 4,20H20A2,2 0 0,0 22,18V6C22,4.89 21.1,4 20,4Z" /></svg>
